X:985
T: Lamp in the Window
S: B.Breathnach:"Ceol Rince na hEireann" IV/198 (gan ainm)
Z: B.Black
L: 1/8
M: 4/4
R: reel
K: F
c2 Ac cfaf|efga befa|c2 Ac cfaf|(3gab eg gf f2 :|
c=BcA FGAF|GABc dD D2|c=BcA FG A2|bgge gf f2 :|
